svgs/sharp-thin/light-switch-off.svg

<svg xmlns="http://www.w3.org/2000/svg" viewBox="0 0 384 512"><!--! Font Awesome Pro 6.6.0 by @fontawesome - https://fontawesome.com License - https://fontawesome.com/license (Commercial License) Copyright 2024 Fonticons, Inc. --><path d="M16 496L16 16l352 0 0 480L16 496zM0 512l16 0 352 0 16 0 0-16 0-480 0-16L368 0 16 0 0 0 0 16 0 496l0 16zM272 248l-160 0 0-136 160 0 0 136zM112 264l160 0 0 136-160 0 0-136zM96 416l16 0 160 0 16 0 0-16 0-288 0-16-16 0L112 96 96 96l0 16 0 288 0 16zm96 24a16 16 0 1 0 0 32 16 16 0 1 0 0-32zm0-400a16 16 0 1 0 0 32 16 16 0 1 0 0-32zM152 352l0-48 80 0 0 48-80 0zm-16 16l16 0 80 0 16 0 0-16 0-48 0-16-16 0-80 0-16 0 0 16 0 48 0 16z"/></svg>

<svg xmlns="http://www.w3.org/2000/svg" viewBox="0 0 384 512"><!--! Font Awesome Pro 6.5.2 by @fontawesome - https://fontawesome.com License - https://fontawesome.com/license (Commercial License) Copyright 2024 Fonticons, Inc. --><path d="M16 496V16H368V496H16zM0 512H16 368h16V496 16 0H368 16 0V16 496v16zM272 248H112V112H272V248zM112 264H272V400H112V264zM96 416h16H272h16V400 112 96H272 112 96v16V400v16zm96 24a16 16 0 1 0 0 32 16 16 0 1 0 0-32zm0-400a16 16 0 1 0 0 32 16 16 0 1 0 0-32zM152 352V304h80v48H152zm-16 16h16 80 16V352 304 288H232 152 136v16 48 16z"/></svg>
